!!!COM: Gabriel Faure/
!!!CNT: Francais
!!!TXO: Francais
!!!OTL: Apre\s un Re^ve
!!!OPS: Op. 7
!!!ONM: No. 1
!!!LYR: Romain Bussine
!!!ENC: Jacob Pegg
!!!YOR: Album of Twenty Songs (Vingt Me/lodies,) Volume I
!!!YOR: Edward B. Marks Music Corporation, RCA Building, Radio
!!!YOR: City, New York 20, N.Y.
!!!ODT: 1877/
!!NB: Vocal melody and text only encoded.
!!NB: First instance of melodic material only encoded.
**kern	**silbe
*clef G2	*
*k[b-]	*
*M3/4	*
*MM[andantino]	*
!!created: 8/21/03 23:43
!!proofed and posted: 8/22/03 10:16
!!edit time: 31 min.
=1	=1
2r	.
4r	.
=2	=2
{4a	{Dans
4dd	un
4ee	som-
=3	=3
[4ff	-meil
12ff]	|
12ee	que
12dd	char-
12ff	-mait
12ee	ton
12dd	i-
=4	=4
2dd	-ma-
4cc}	-ge}
=5	=5
{8ee-	{Je
8g	re^-
4ee-	-vais
8dd	le
8cc#	bon-
=6	=6
4.dd	-heur
8dd	ar-
8.ccn	-dent
16b-	mi-
=7	=7
[4a	-ra-
(12a]	|
12b-	|
12ccn	|
12b-	|
12ccn	|
12dd)	|
=8	=8
2.a}	-ge,}
=9	=9
{4a	{Tes
6f	yeux
12g	e/-
6a	-taient
12b-	plus
=10	=10
[4cc	doux,
12cc]	|
12g	ta
12g	voix
12g	pure
12f#	et
12g	so-
=11	=11
2b-	-no-
4a}	-re.}
=12	=12
{4dd	{Tu
4.dd	ray-
8dd-	-on-
=13	=13
4cc	-nais
4f	comme
4f	un
=14	=14
[4g	ciel
(12g]	|
12a-	e/-
12b-)	-clai-
(12a-	-re/
12b-)	par
12cc	l'au-
=15	=15
2cc	-ro-
4f}	-re;}
!! repeat material until
=30	=30
4r	.
4r	.
{4dd	{He/-
=31	=31
2gg}	-las!}
{4g	{He/-
=32	=32
[4g	-las,
12g]	tris-
12a	-te
12bn	re/-
(12cc	-veil
12dd)	|
12ee-	des
=33	=33
[4ee-	son-
(12ee-]	|
12dd	|
12ff	|
12ee-	|
12dd	|
12cc)	|
=34	=34
2ee-}	-ges,}
{8.cc	{Je
16cc	t'ap-
=35	=35
2ff	-pel-
4ee-	-le, o^
=36	=36
[4ee-	nuit,
(12ee-]	|
12dd)	|
12cc	rends~
12b-	~moi
12a	tes
12g	men-
=37	=37
[4a	-son-
(12a]	|
12b-	|
12a	|
12g	|
12a	|
12b-)	|
=38	=38
2a}	-ges,}
{4a	{Re-
=39	=39
2dd	-viens,
4dd	re-
=40	=40
2dd	-viens
8.dd	ra-
16ee	-di-
=41	=41
2.ff	-eu-
=42	=42
2ee}	-se,}
{4ee	{Re-
=43	=43
2ee	-viens,
4dd	o^
=44	=44
4.cc	nuit
8a	mys-
8f	-te\-
8g	-ri-
=45	=45
[4a	-eu-
(12a]	|
12g	|
12f	|
12g	|
12a	|
12b-	|
=46	=46
2.a)	|
=47	=47
2.d}	-se!}
*-	*-
